static/assets/img/icons/theme/home/door-open.svg

<svg height="24" viewBox="0 0 24 24" width="24" xmlns="http://www.w3.org/2000/svg"><g fill="none" fill-rule="evenodd"><path d="m0 0h24v24h-24z" opacity="0"/><g fill="#000"><path d="m7 4.89473684v16.10526316h-2v-18h6v1.89473684z" fill-rule="nonzero" opacity=".3"/><path d="m10.1782982 2.24743315 8 1.44961325c.4757637.08620917.8217018.50046526.8217018.98397651v14.63798349c0 .4835113-.3459381.8977674-.8217018.9839765l-8 1.4496133c-.54343525.0984713-1.06380334-.2622431-1.1622747-.8056783-.01066085-.0588342-.0160235-.118506-.0160235-.1782982v-17.53721004c0-.55228475.44771525-1 1-1 .0597922 0 .119464.00536264.1782982.01602349zm1.7383685 10.65858975c.6903559 0 1.25-.6084505 1.25-1.3590124 0-.7505618-.5596441-1.3590124-1.25-1.3590124-.690356 0-1.25.6084506-1.25 1.3590124 0 .7505619.559644 1.3590124 1.25 1.3590124z"/></g></g></svg>

<svg width="24px" height="24px" viewBox="0 0 24 24" version="1.1" xmlns="http://www.w3.org/2000/svg" xmlns:xlink="http://www.w3.org/1999/xlink">
    <title>Icon For Door-open</title>
    <g stroke="none" stroke-width="1" fill="none" fill-rule="evenodd">
        <rect opacity="0" x="0" y="0" width="24" height="24"></rect>
        <polygon fill="#000000" fill-rule="nonzero" opacity="0.3" points="7 4.89473684 7 21 5 21 5 3 11 3 11 4.89473684"></polygon>
        <path d="M10.1782982,2.24743315 L18.1782982,3.6970464 C18.6540619,3.78325557 19,4.19751166 19,4.68102291 L19,19.3190064 C19,19.8025177 18.6540619,20.2167738 18.1782982,20.3029829 L10.1782982,21.7525962 C9.63486295,21.8510675 9.11449486,21.4903531 9.0160235,20.9469179 C9.00536265,20.8880837 9,20.8284119 9,20.7686197 L9,3.23140966 C9,2.67912491 9.44771525,2.23140966 10,2.23140966 C10.0597922,2.23140966 10.119464,2.2367723 10.1782982,2.24743315 Z M11.9166667,12.9060229 C12.6070226,12.9060229 13.1666667,12.2975724 13.1666667,11.5470105 C13.1666667,10.7964487 12.6070226,10.1879981 11.9166667,10.1879981 C11.2263107,10.1879981 10.6666667,10.7964487 10.6666667,11.5470105 C10.6666667,12.2975724 11.2263107,12.9060229 11.9166667,12.9060229 Z" fill="#000000"></path>
    </g>
</svg>
